packages/blockchain-info-components/src/Images/img/globe.svg

<svg fill="none" height="32" viewBox="0 0 32 32" width="32" xmlns="http://www.w3.org/2000/svg" xmlns:xlink="http://www.w3.org/1999/xlink"><clipPath id="a"><path d="m0 0h32v32h-32z"/></clipPath><g clip-path="url(#a)"><path d="m16 0c-8.832 0-16 7.168-16 16s7.168 16 16 16 16-7.168 16-16-7.168-16-16-16zm-1.6 28.688c-6.32-.784-11.2-6.16-11.2-12.688 0-.992.20005-3 2.00005-3s3 5.4 4.2 6.6c1.19995 1.2 2.99995.04 2.99995 1.8s.24 4.2 2 4.2 0 3.088 0 3.088zm11.04-4.064c-.416-1.296-1.6-2.224-3.04-2.224 0 0-1.0072.1976-1.6 0-1.7783-.5928 0-3.92 0-4.8s-.72-1.6-1.6-1.6c0 0-7.4144 4.1567-8.6.6-.3951-1.1855-1.88366-2.9163-1-3.8.8837-.8837 3.2 0 3.2 0 .88 0 1.6-.72 1.6-1.6 0 0-.8837-2.31634 0-3.2s1.44 0 3.2 0 3.2-1.44 3.2-3.2v-.656c4.688 1.904 8 6.496 8 11.856 0 3.328-1.28 6.352-3.36 8.624z" fill="#0c6cf2"/></g></svg>

<svg width="32" height="32" viewBox="0 0 32 32" fill="none" xmlns="http://www.w3.org/2000/svg">
<g clip-path="url(#clip0_489_35358)">
<path d="M16 0C7.168 0 0 7.168 0 16C0 24.832 7.168 32 16 32C24.832 32 32 24.832 32 16C32 7.168 24.832 0 16 0ZM14.4 28.688C8.08 27.904 3.2 22.528 3.2 16C3.2 15.008 3.40005 13 5.20005 13C7.00005 13 8.20005 18.4 9.40005 19.6C10.6 20.8 12.4 19.64 12.4 21.4C12.4 23.16 12.64 25.6 14.4 25.6C16.16 25.6 14.4 28.688 14.4 28.688ZM25.44 24.624C25.024 23.328 23.84 22.4 22.4 22.4C22.4 22.4 21.3928 22.5976 20.8 22.4C19.0217 21.8072 20.8 18.48 20.8 17.6C20.8 16.72 20.08 16 19.2 16C19.2 16 11.7856 20.1567 10.6 16.6C10.2049 15.4145 8.71634 13.6837 9.6 12.8C10.4837 11.9163 12.8 12.8 12.8 12.8C13.68 12.8 14.4 12.08 14.4 11.2C14.4 11.2 13.5163 8.88366 14.4 8C15.2837 7.11634 15.84 8 17.6 8C19.36 8 20.8 6.56 20.8 4.8V4.144C25.488 6.048 28.8 10.64 28.8 16C28.8 19.328 27.52 22.352 25.44 24.624Z" fill="#0C6CF2"/>
</g>
<defs>
<clipPath id="clip0_489_35358">
<rect width="32" height="32" fill="white"/>
</clipPath>
</defs>
</svg>
